!!!!SEGMENT: pl-kk--kk-i-388--010_anonim--offertorium-ecce-sacerdos.krn
!!!cenid: 18xx:1407
!!!COM: Anonim
!!!COM-rismid: pe30004985
!!!CDT:
!!!CNT:
!!!OTL: Offertorium – Ecce sacerdos
!!!PDT:
!!!AGN: Sacred
!!!SMS-siglum: PL-Kk
!!!SMS-shelfmark: Kk.I.388
!!!SMS-shelfwork: 010 W
!!!SMS-variant:
!!!SMS-altvar:
!!!NIFC-rismid: 1001140888
!!!URL-scan: http://repozytorium.nifc.pl/skany/pl-kk-nut--i-388
!!!ONB-nifc:
**kern	**text	**text	**kern	**text	**text	**kern	**text	**text	**kern	**text	**text
*part4	*part4	*part4	*part3	*part3	*part3	*part2	*part2	*part2	*part1	*part1	*part1
*staff4	*staff4	*staff4	*staff3	*staff3	*staff3	*staff2	*staff2	*staff2	*staff1	*staff1	*staff1
*I"Basso.	*	*	*I"Tenore.	*	*	*I"Alto.	*	*	*I"Soprano.	*	*
*I'B	*	*	*I'T	*	*	*I'A	*	*	*I'S	*	*
*clefF4	*	*	*clefC4	*	*	*clefC3	*	*	*clefC1	*	*
*k[b-e-]	*	*	*k[b-e-]	*	*	*k[b-e-]	*	*	*k[b-e-]	*	*
*B-:	*	*	*B-:	*	*	*B-:	*	*	*B-:	*	*
*M2/2	*	*	*M2/2	*	*	*M2/2	*	*	*M2/2	*	*
*met(c|)	*	*	*met(c|)	*	*	*met(c|)	*	*	*met(c|)	*	*
=1	=1	=1	=1	=1	=1	=1	=1	=1	=1	=1	=1
*2\right	*	*	*2\right	*	*	*2\right	*	*	*2\right	*	*
!LO:TX:t=P:problem:all\right:global	!	!	!LO:TX:t=P:problem:all\right:global	!	!	!LO:TX:t=P:problem:all\right:global	!	!	!LO:TX:t=P:problem:all\right:global	!	!
!LO:TX:B:a:i:t=No 10. Offer&colon;	!	!	!LO:TX:B:a:i:t=No 10.ty. Offertorium.	!	!	!LO:TX:B:i:a:t=No 10. Offer&colon;	!	!	!LO:TX:B:i:a:t=No 10. Offertorium	!	!
!LO:TX:t=P:problem: nazwa głosu na górze karty	!	!	!LO:TX:t=P:problem: nazwa głosu na górze karty	!	!	!LO:TX:t=P:problem: nazwa głosu na górze karty	!	!	!LO:TX:t=P:problem: nazwa głosu na górze karty	!	!
!LO:TX:a:t=P:problem: napis "No 10. Offer:" przed kluczem	!	!	!LO:TX:a:t=P:problem: napis "No 10.ty. Offertorium." przed kluczem	!	!	!LO:TX:a:t=P:problem: napis "No 10. Offer:" przed kluczem	!	!	!LO:TX:a:t=P:problem: napis "No 10. Offertorium" przed kluczem	!	!
!LO:TX:i:a:t=in B.	!	!	!LO:TX:a:i:t=in B.	!	!	!LO:TX:a:i:t=in B.	!	!	!	!	!
2B-\	Ec-	.	2B-\	Ec-	.	2f\	Ec-	.	2dd\	Ec-	.
4B-\	-ce	.	4B-\	-ce	.	4f\	-ce	.	4dd\	-ce	.
4B-\	Sa-	.	4B-\	Sa-	.	4f\	Sa-	.	4dd\	Sa-	.
=2	=2	=2	=2	=2	=2	=2	=2	=2	=2	=2	=2
2F\	-cer-	.	2A\	-cer-	.	2f\	-cer-	.	2cc\	-cer-	.
2F\	-dos	.	2A\	-dos	.	2f\	-dos	.	2cc\	-dos	.
=3	=3	=3	=3	=3	=3	=3	=3	=3	=3	=3	=3
1G	ma-	.	1G	ma-	.	1d	ma-	.	1b-	ma-	.
=4	=4	=4	=4	=4	=4	=4	=4	=4	=4	=4	=4
1D	-gnus	.	1F	-gnus	.	1d	-gnus	.	1a	-gnus	.
=5	=5	=5	=5	=5	=5	=5	=5	=5	=5	=5	=5
2E-\	qui	.	2B-\	in	.	2g\	qui	.	2.g\	in	.
4C/	in	.	2c\	di-	.	4e-\	in	.	.	.	.
4C/	di-	.	.	.	.	4e-\	di-	.	4a\	di-	.
=6	=6	=6	=6	=6	=6	=6	=6	=6	=6	=6	=6
2BB-/	-e-	.	2.d\	-e-	.	2f\	-e-	.	2b-\	-e-	.
2G\	-bus	.	.	.	.	2g\	-bus	.	2b-\	-bus	.
.	.	.	4B-\	-bus	.	.	.	.	.	.	.
!	!	!	!LO:LB:g=original	!	!	!LO:LB:g=original	!	!	!LO:LB:g=original	!	!
=7	=7	=7	=7	=7	=7	=7	=7	=7	=7	=7	=7
2E-\	su-	.	2B-\	su-	.	2g\	su-	.	2cc\	su-	.
2F\	-is,	.	2A\	-is,	.	2f\	-is,	.	2cc\	-is	.
!LO:LB:g=original	!	!	!	!	!	!	!	!	!	!	!
=8	=8	=8	=8	=8	=8	=8	=8	=8	=8	=8	=8
1B-	pla-	.	1B-	pla-	.	1f	pla-	.	1dd	pla-	.
=9	=9	=9	=9	=9	=9	=9	=9	=9	=9	=9	=9
2A\	-cu-	.	2c\	-cu-	.	2f\	-cu-	.	2ee-\	-cu-	.
2B-\	-it	.	2B-\	-it	.	2f\	-it	.	2dd\	-it	.
=10	=10	=10	=10	=10	=10	=10	=10	=10	=10	=10	=10
1F	De-	.	2A\	De-	.	1f	De-	.	2cc\	De-	.
.	.	.	2B-\	.	.	.	.	.	2dd\	-o	.
=11	=11	=11	=11	=11	=11	=11	=11	=11	=11	=11	=11
1F	.	.	2B-\	.	.	1f	.	.	1cc	De-	.
.	.	.	2A\	.	.	.	.	.	.	.	.
=12	=12	=12	=12	=12	=12	=12	=12	=12	=12	=12	=12
1BB-	-o.	.	1B-	-o.	.	1f	-o.	.	1dd	-o.	.
=13||	=13||	=13||	=13||	=13||	=13||	=13||	=13||	=13||	=13||	=13||	=13||
1G	Non	.	1B-	Non	.	1g	non	.	1dd	Non	.
=14	=14	=14	=14	=14	=14	=14	=14	=14	=14	=14	=14
2F#X\	est	.	2A\	est	.	2a\	est	.	2dd\	est	.
2D\	in-	.	2d\	in-	.	2f#X\	in-	.	2dd\	in-	.
=15	=15	=15	=15	=15	=15	=15	=15	=15	=15	=15	=15
1G	-ven-	.	1d	-ven-	.	1g	-ven-	.	1b-	-ven-	.
=16	=16	=16	=16	=16	=16	=16	=16	=16	=16	=16	=16
2D\	-tus,	.	2d\	-tus,	.	2fn\	-tus,	.	2a\	-tus,	.
2D\	in-	.	2d\	in-	.	2f\	in-	.	2a\	in-	.
!	!	!	!	!	!	!LO:LB:g=original	!	!	!	!	!
=17	=17	=17	=17	=17	=17	=17	=17	=17	=17	=17	=17
2E-\	-ven-	.	2B-\	-ven-	.	2e-X\	-ven-	.	2g\	-ven-	.
2E-\	-tus	.	2B-\	-tus	.	2e-\	-tus	.	2g\	-tus	.
!	!	!	!LO:PB:g=original	!	!	!	!	!	!LO:PB:g=original	!	!
=18	=18	=18	=18	=18	=18	=18	=18	=18	=18	=18	=18
2C/	si-	.	2c\	si-	.	2e-\	si-	.	2a\	su-	.
4F\	-mi-	.	4d\	-mi-	.	4f\	-mi-	.	4a\	-mi-	.
4F\	-lis	.	4e-\	-lis	.	4f\	-lis	.	4a\	-lis	.
!LO:LB:g=original	!	!	!	!	!	!	!	!	!	!	!
=19	=19	=19	=19	=19	=19	=19	=19	=19	=19	=19	=19
1BB-	il-	.	1d	il-	.	1f	il-	.	1b-	il-	.
=20	=20	=20	=20	=20	=20	=20	=20	=20	=20	=20	=20
2F\	-li,	.	2A\	-li,	.	2f\	-li,	.	2cc\	-li,	.
2F\	qui	.	2A\	qui	.	2f\	qui	.	2cc\	qui	.
=21	=21	=21	=21	=21	=21	=21	=21	=21	=21	=21	=21
2B-\	con-	.	2B-\	con-	.	2f\	con-	.	2dd\	con-	.
2G\	-ser-	.	2B-\	-ser-	.	2b-X\	-ser-	.	2ee-\	-ser-	.
=22	=22	=22	=22	=22	=22	=22	=22	=22	=22	=22	=22
2D\	-va-	.	2B-\	-va-	.	2b-\	-va-	.	2ff\	-va-	.
2E-\	-ret	.	2B-\	-ret	.	2g\	-ret	.	2gg\	-ret,	.
=23	=23	=23	=23	=23	=23	=23	=23	=23	=23	=23	=23
2F\	le-	.	2A\	le-	.	2f\	le-	.	2cc\	le-	.
4BB-/	-gem	.	4B-\	-gem	.	4f\	-gem	.	4dd\	-gem	.
4BB-/	ex-	.	4B-\	ex-	.	4f\	ex-	.	4dd\	ex-	.
=24	=24	=24	=24	=24	=24	=24	=24	=24	=24	=24	=24
1F	-cel-	.	2B-\	-cel-	.	1f	-cel-	.	1cc	-cel-	.
.	.	.	2A\	.	.	.	.	.	.	.	.
=25	=25	=25	=25	=25	=25	=25	=25	=25	=25	=25	=25
2BB-/	-sis,	.	2B-\	-sis,	.	2f\	-sis,	.	2dd\	-sis,	.
!	!	!	!	!	!	!LO:PB:g=original	!	!	!	!	!
2A-X\	qui	.	2B-\	qui	.	2f\	qui	.	2dd\	qui	.
!	!	!	!LO:LB:g=original	!	!	!	!	!	!LO:LB:g=original	!	!
=26	=26	=26	=26	=26	=26	=26	=26	=26	=26	=26	=26
2G\	con-	.	2B-\	con-	.	2g\	con-	.	2.ee-\	con-	.
2E-\	-ser-	.	2G/	-ser-	.	2b-\	-ser-	.	.	.	.
.	.	.	.	.	.	.	.	.	4gg\	-ser-	.
=27	=27	=27	=27	=27	=27	=27	=27	=27	=27	=27	=27
2D\	-va-	.	2B-\	-va-	.	2b-\	-va-	.	2ff\	-va-	.
2G\	-ret	.	2B-\	-ret	.	2b-\	-ret	.	2dd\	-ret,	.
!LO:LB:g=original	!	!	!	!	!	!	!	!	!	!	!
=28	=28	=28	=28	=28	=28	=28	=28	=28	=28	=28	=28
2C/	con-	.	2c\	con-	.	2b-\	con-	.	2.ee-\	con-	.
2F\	-ser-	.	2c\	-ser-	.	2a\	-ser-	.	.	.	.
.	.	.	.	.	.	.	.	.	4ee-\	-ser-	.
=29	=29	=29	=29	=29	=29	=29	=29	=29	=29	=29	=29
2BB-/	-va-	.	2B-\	-va-	.	2b-\	-va-	.	2dd\	-va-	.
2B-\	-ret	.	2B-\	-ret	.	2f\	-ret,	.	2dd\	-ret,	.
=30	=30	=30	=30	=30	=30	=30	=30	=30	=30	=30	=30
2A\	le-	.	2c\	le-	.	2f#X\	le-	.	2dd\	le-	.
2G\	-gem	.	2B-\	-gem	.	2g\	-gem	.	2dd\	-gem,	.
=31	=31	=31	=31	=31	=31	=31	=31	=31	=31	=31	=31
2F#X\	con-	.	2A\	con-	.	2a\	con-	.	2dd\	con-	.
2D\	-ser-	.	2A\	-ser-	.	2f#X\	-ser-	.	2dd\	-ser-	.
=32	=32	=32	=32	=32	=32	=32	=32	=32	=32	=32	=32
2En\	-va-	.	2G/	-va-	.	2g\	-va-	.	2.dd\	-va-	.
2F#X\	.	.	2d\	.	.	2a\	-ret	.	.	.	.
.	.	.	.	.	.	.	.	.	4cc\	.	.
!	!	!	!	!	!	!LO:LB:g=original	!	!	!	!	!
=33	=33	=33	=33	=33	=33	=33	=33	=33	=33	=33	=33
1G	-ret	.	2G/	.	.	2g\	con-	.	2b-\	.	.
.	.	.	4A\	.	.	2g\	-ser-	.	4cc\	.	.
.	.	.	4B-\	.	.	.	.	.	4dd\	.	.
!	!	!	!LO:LB:g=original	!	!	!	!	!	!LO:LB:g=original	!	!
=34	=34	=34	=34	=34	=34	=34	=34	=34	=34	=34	=34
2C/	con-	.	1c	-ret	.	1g	-va-	.	1ee-	-ret,	.
4D\	.	.	.	.	.	.	.	.	.	.	.
4E-\	-ser-	.	.	.	.	.	.	.	.	.	.
=35	=35	=35	=35	=35	=35	=35	=35	=35	=35	=35	=35
2F\	-va-	.	2c\	le-	.	2fn\	-ret,	.	2ee-\	le-	.
2BB-/	-ret	.	4B-\	-gem	.	4f\	le-	.	4dd\	-gem	.
.	.	.	4B-\	ex-	.	4f\	-gem	.	4dd\	ex-	.
!LO:LB:g=original	!	!	!	!	!	!	!	!	!	!	!
=36	=36	=36	=36	=36	=36	=36	=36	=36	=36	=36	=36
2F\	le-	.	2A\	-cel-	.	2f\	le-	.	2cc\	-cel-	.
4F\	-gem	.	2B-\	.	.	4f\	-gem	.	2dd\	.	.
4F\	ex-	.	.	.	.	4f\	ex-	.	.	.	.
=37	=37	=37	=37	=37	=37	=37	=37	=37	=37	=37	=37
1F	-cel-	.	2B-\	.	.	1f	-cel-	.	1cc	.	.
.	.	.	2A\	.	.	.	.	.	.	.	.
=38	=38	=38	=38	=38	=38	=38	=38	=38	=38	=38	=38
1BB-	-sis	.	1B-	-sis,	.	1f	-sis,	.	1dd	-sis,	.
=39	=39	=39	=39	=39	=39	=39	=39	=39	=39	=39	=39
1G	Non	.	1B-	Non	.	1g	Non	.	1dd	Non	.
=40	=40	=40	=40	=40	=40	=40	=40	=40	=40	=40	=40
2F#X\	est	.	2A\	est	.	2a\	est	.	2dd\	est	.
2D\	in-	.	2d\	in-	.	2f#X\	in-	.	2dd\	in-	.
=41	=41	=41	=41	=41	=41	=41	=41	=41	=41	=41	=41
1G	-ven-	.	1d	-ven-	.	1g	-ven-	.	1b-	-ven-	.
=42	=42	=42	=42	=42	=42	=42	=42	=42	=42	=42	=42
2D\	-tus,	.	2d\	-tus	.	2fn\	-tus,	.	2a\	-tus,	.
2D\	in-	.	2d\	in-	.	2f\	in-	.	2a\	in-	.
!	!	!	!LO:LB:g=original	!	!	!LO:LB:g=original	!	!	!	!	!
=43	=43	=43	=43	=43	=43	=43	=43	=43	=43	=43	=43
2E-\	-ven-	.	2B-\	-ven-	.	2e-X\	-ven-	.	2g\	-ven-	.
!	!	!	!	!	!	!	!	!	!LO:LB:g=original	!	!
2E-\	-tus	.	2B-\	-tus	.	2e-\	-tus,	.	2g\	-tus	.
=44	=44	=44	=44	=44	=44	=44	=44	=44	=44	=44	=44
2C/	si-	.	2c\	si-	.	2e-\	si-	.	2a\	si-	.
4F\	-mi-	.	4d\	-mi-	.	4f\	-mi-	.	4a\	-mi-	.
4F\	-lis	.	4e-\	-lis	.	4f\	-lis	.	4a\	-lis	.
!LO:LB:g=original	!	!	!	!	!	!	!	!	!	!	!
=45	=45	=45	=45	=45	=45	=45	=45	=45	=45	=45	=45
1BB-	il-	.	1d	il-	.	1f	il-	.	1b-	il-	.
=46	=46	=46	=46	=46	=46	=46	=46	=46	=46	=46	=46
2F\	-li	.	2A\	-li,	.	2f\	-li,	.	2cc\	-li,	.
2F\	qui	.	2A\	qui	.	2f\	qui	.	2cc\	qui	.
=47	=47	=47	=47	=47	=47	=47	=47	=47	=47	=47	=47
2B-\	con-	.	2B-\	con-	.	2f\	con-	.	2dd\	con-	.
2G\	-ser-	.	2B-\	-ser-	.	2b-\	-ser-	.	2ee-\	-ser-	.
=48	=48	=48	=48	=48	=48	=48	=48	=48	=48	=48	=48
2D\	-va-	.	2B-\	-va-	.	2b-\	-va-	.	2ff\	-va-	.
2E-\	-ret	.	2B-\	-ret	.	2g\	-ret	.	2gg\	-ret	.
=49	=49	=49	=49	=49	=49	=49	=49	=49	=49	=49	=49
2F\	le-	.	2A\	le-	.	2f\	le-	.	2cc\	le-	.
!	!	!	!	!	!	!	!LO:SIC:s=-gem	!	!	!	!
4BB-/	-gem	.	4B-\	-gem	.	4f\	-giem	.	4dd\	-gem	.
4BB-/	ex-	.	4B-\	ex-	.	4f\	ex-	.	4dd\	ex-	.
=50	=50	=50	=50	=50	=50	=50	=50	=50	=50	=50	=50
1F	-cel-	.	2B-\	-cel-	.	1f	-cel-	.	1cc	-cel-	.
!	!	!	!LO:LB:g=original	!	!	!	!	!	!	!	!
.	.	.	2A\	.	.	.	.	.	.	.	.
!	!	!	!	!	!	!LO:LB:g=original	!	!	!	!	!
=51	=51	=51	=51	=51	=51	=51	=51	=51	=51	=51	=51
2BB-/	-sis,	.	2B-\	-sis,	.	2f\	-sis,	.	2dd\	-sis,	.
2A-X\	qui	.	2B-\	qui	.	2f\	qui	.	2dd\	qui	.
!	!	!	!	!	!	!	!	!	!LO:LB:g=original	!	!
=52	=52	=52	=52	=52	=52	=52	=52	=52	=52	=52	=52
2G\	con-	.	2B-\	con-	.	2g\	con-	.	2.ee-\	con-	.
2E-\	-ser-	.	2G/	-ser-	.	2b-\	-ser-	.	.	.	.
.	.	.	.	.	.	.	.	.	4gg\	-ser-	.
=53	=53	=53	=53	=53	=53	=53	=53	=53	=53	=53	=53
2D\	-va-	.	2B-\	-va-	.	2b-\	-va-	.	2ff\	-va-	.
2G\	-ret	.	2B-\	-ret	.	2b-\	-ret	.	2dd\	-ret	.
!LO:LB:g=original	!	!	!	!	!	!	!	!	!	!	!
=54	=54	=54	=54	=54	=54	=54	=54	=54	=54	=54	=54
2C/	con-	.	2c\	con-	.	2b-\	con-	.	2.ee-\	con-	.
2F\	-ser-	.	2c\	-ser-	.	2a\	-ser-	.	.	.	.
.	.	.	.	.	.	.	.	.	4ee-\	-ser-	.
=55	=55	=55	=55	=55	=55	=55	=55	=55	=55	=55	=55
2BB-/	-va-	.	2B-\	-va-	.	2b-\	-va-	.	2dd\	-va-	.
2B-\	-ret	.	2B-\	-ret	.	2f\	-ret	.	2dd\	-ret	.
=56	=56	=56	=56	=56	=56	=56	=56	=56	=56	=56	=56
2A\	le-	.	2c\	le-	.	2f#X\	le-	.	2dd\	le-	.
2G\	-gem	.	2B-\	-gem	.	2g\	-gem	.	2dd\	-gem,	.
=57	=57	=57	=57	=57	=57	=57	=57	=57	=57	=57	=57
2F#X\	con-	.	2A\	con-	.	2a\	con-	.	2dd\	con-	.
2D\	-ser-	.	2A\	-ser-	.	2f#X\	-ser-	.	2dd\	-ser-	.
!	!	!	!LO:LB:g=original	!	!	!	!	!	!	!	!
=58	=58	=58	=58	=58	=58	=58	=58	=58	=58	=58	=58
2En\	-va-	.	2G/	-va-	.	2g\	-va-	.	2.dd\	-va-	.
2F#X\	.	.	2d\	.	.	2a\	-ret	.	.	.	.
.	.	.	.	.	.	.	.	.	4cc\	.	.
!	!	!	!	!	!	!LO:LB:g=original	!	!	!	!	!
=59	=59	=59	=59	=59	=59	=59	=59	=59	=59	=59	=59
1G	-ret	.	2G\	.	.	2g\	con-	.	2b-\	.	.
.	.	.	4A\	.	.	2g\	-ser-	.	4cc\	.	.
.	.	.	4B-\	.	.	.	.	.	4dd\	.	.
!	!	!	!	!	!	!	!	!	!LO:LB:g=original	!	!
=60	=60	=60	=60	=60	=60	=60	=60	=60	=60	=60	=60
2C/	con-	.	1c	-ret	.	1g	-va-	.	1ee-	-ret	.
4D\	.	.	.	.	.	.	.	.	.	.	.
4E-\	-ser-	.	.	.	.	.	.	.	.	.	.
=61	=61	=61	=61	=61	=61	=61	=61	=61	=61	=61	=61
2F\	-va-	.	2c\	le-	.	2fn\	-ret	.	2ee-\	le-	.
!LO:LB:g=original	!	!	!	!	!	!	!	!	!	!	!
2BB-/	-ret	.	4B-\	-gem	.	4f\	le-	.	4dd\	-gem	.
.	.	.	4B-\	ex-	.	4f\	-gem	.	4dd\	ex-	.
=62	=62	=62	=62	=62	=62	=62	=62	=62	=62	=62	=62
2F\	le-	.	2A\	-cel-	.	2f\	le-	.	2cc\	-cel-	.
4F\	-gem	.	2B-\	.	.	4f\	-gem	.	2dd\	.	.
4F\	ex-	.	.	.	.	4f\	ex-	.	.	.	.
=63	=63	=63	=63	=63	=63	=63	=63	=63	=63	=63	=63
1F	-cel-	.	2B-\	.	.	1f	-cel-	.	1cc	.	.
.	.	.	2A\	.	.	.	.	.	.	.	.
=64	=64	=64	=64	=64	=64	=64	=64	=64	=64	=64	=64
1BB-	-sis,	.	1B-	-sis,	.	1f	-sis,	.	1dd	-sis,	.
=65	=65	=65	=65	=65	=65	=65	=65	=65	=65	=65	=65
2BB-/	le-	al-	1B-	ex-	al-	2f\	le-	al-	1dd	ex-	al-
2BB-/	-gem	-le-	.	.	.	2a-X\	-gem	-le-	.	.	.
=66	=66	=66	=66	=66	=66	=66	=66	=66	=66	=66	=66
!	!	!	!LO:N:vis=0	!	!	!	!	!	!	!	!
1E-	ex-	-lu-	0B-	-cel-	-le lu-	1g	ex-	-lu-	1ee-	.	-le-
=67	=67	=67	=67	=67	=67	=67	=67	=67	=67	=67	=67
1E-	-cel-	.	.	.	.	1g	-cel-	.	1ee-	-cel-	-lu-
=68	=68	=68	=68	=68	=68	=68	=68	=68	=68	=68	=68
!LO:N:vis=0	!	!	!LO:N:vis=0	!	!	!LO:N:vis=0	!	!	!LO:N:vis=0	!	!
0BB-	-sis.	-ia.	0B-	-sis.	-ia.	0f	-sis,	-ia.	0dd	-sis.	-ia.
=69	=69	=69	=69	=69	=69	=69	=69	=69	=69	=69	=69
.	.	.	.	.	.	.	.	.	.	.	.
==	==	==	==	==	==	==	==	==	==	==	==
*-	*-	*-	*-	*-	*-	*-	*-	*-	*-	*-	*-
!!!system-decoration: [(s1,s2,s3,s4)]
!!!RDF**kern: > = above
!!!RDF**kern: < = below
!!!EED: Mateusz Mrugas
!!!EST: 2021-01-18
!!!ENC: Berenika Jozajtis
!!!END: 2021-01-16
